X:1
T:Title
%%score 1 ( 2 3 4 5 )
L:1/8
Q:1/4=70
M:4/4
K:A
V:1 treble nm="Strings 1, Treble"
V:2 bass nm="Strings 1, Bass"
V:3 bass 
V:4 bass 
V:5 bass 
V:1
 z4 z2 [A,C][B,D] | [CE][EA][EA][EG] [EG][DF][Q:1/4=70]B,[A,C][Q:1/4=12] | %2
w: 1.~I~ was~|bound~ by~ sin~ and~ e vil,~ From~ which~|
 [B,D][DB][DB][DA] [DA][DG][Q:1/4=70][EG][DF][Q:1/4=12] | %3
w: there~ seemed~ no~ re triev al�~ I~ could~|
 [CE][DF][B,D][CE][K:bass] [A,C] [B,D]2 [A,C] | B,6 [A,C][K:treble][B,D] | %5
w: not~ do~ aught~ to~ cast~ its~ con|trol;~ But~ a~|
 [CE][EA][EA][EG] [EG][DF][Q:1/4=70]B,[A,C][Q:1/4=12] | %6
w: Sav ior's~ won drous~ pow er~ Caused~ the~|
 [B,D][DB][DB][DA] [DA][DG][Q:1/4=70][FA][GB][Q:1/4=12] | %7
w: hosts~ of~ sin~ to~ cow er,~ And~ in~|
 [Ac]4- [Ac][Q:1/4=70][FA][FA][Q:1/4=70][GB][Q:1/4=12][Q:1/4=12][Q:1/4=12] | %8
w: love~ * He~ came~ and~|
[Q:1/4=100] [Ac][FA] [GB]2 [EA]2 [EA][EA] | [Fd]>[Fd] [Fd][Fd] [FB][FA][Ac][Bd] | %10
w: res cued~ my~ soul.~ * *||
 [Ae]>[Ae] [Ae][Ae] [Ac]A[AB][Ac] | [Bd][GB][ce][Bd] [Ac] [FA]2 [GB] | [Ac]6 [EA][EA] | %13
w: |||
 [Fd]>[Fd] [Fd][Fd] [FB][FA][Ac][Bd] | [Ae]>[Ae] [Ae][Ae] [Ac]AEE | A[GB][Fc][Dd] [Ee] [Ec]2 [DE] | %16
w: |||
 [CA]6 z2 |] %17
w: |
V:2
 z8 | z/ A,3/2- A,4 z2 | z/ G,3/2- G,4 z2 | z/4 z/8 G,/8-G,3/2- G,2 z/4 z/8 C,/8-C,3/2- C,2 | %4
w: ||||
 z/ E,3/2- E,4 z2 | z/ A,3/2- A,4 z2 | z/ G,3/2- G,4 [D,A,][E,B,] | %7
w: ||* * And~ in~|
 [F,A,][F,A,][^E,B,][E,B,] [F,C][F,C][F,C][E,D] | [E,C][F,D] [E,D]2 [A,,C]2[K:treble] [A,C][A,C] | %9
w: love,~ such~ won drous~ love~ * * *||
 D4- DD[CE][B,D] | [A,C]>[A,C] [A,C][A,C] [A,E][CE][K:bass][B,D][A,C] | %11
w: ||
 [E,B,][E,B,][E,E][E,D] [E,C] [F,D]2 [E,D] | E-[E,E-][A,E-][B,E-] [CE-][B,E][K:treble][A,C][A,C] | %13
w: ||
 D4- DD[CE][K:bass][B,D] | [A,C]>[A,C] [A,C][A,C] [A,E][A,E][E,E][E,E] | %15
w: ||
 A,[G,B,][F,C][D,D] [E,E] [E,C]2 [E,G,] | [A,,A,]6 z2 |] %17
w: ||
V:3
 x8 | z/4 z/8 E,/8-E,3/2- E,4 z2 | z/4 z/8 E,/8-E,3/2- E,4 z2 | %3
 z/8 E,3/8-E,3/2- E,2 z/8 A,,3/8-A,,3/2- A,,2 | z/4 z/8 B,,/8-B,,3/2- B,,4 z2 | %5
 z/4 z/8 E,/8-E,3/2- E,4 z2 | z/4 z/8 E,/8-E,3/2- E,4 z2 | x8 | x6[K:treble] x2 | x8 | %10
 x6[K:bass] x2 | x8 | .A,2 z2 z4[K:treble] | x7[K:bass] x | x8 | x8 | x8 |] %17
V:4
 x8 | z/8 C,3/8-C,3/2- C,4 z2 | z/8 D,3/8-D,3/2- D,4 z2 | C,4 F,,4 | z/8 G,,3/8-G,,3/2- G,,4 z2 | %5
 z/8 C,3/8-C,3/2- C,4 z2 | z/8 D,3/8-D,3/2- D,4 z2 | x8 | x6[K:treble] x2 | x8 | x6[K:bass] x2 | %11
 x8 | x6[K:treble] x2 | x7[K:bass] x | x8 | x8 | x8 |] %17
V:5
 x8 | A,,6 z2 | B,,6 z2 | x8 | E,,6 z2 | A,,6 z2 | B,,6 z2 | x8 | x6[K:treble] x2 | x8 | %10
 x6[K:bass] x2 | x8 | x6[K:treble] x2 | x7[K:bass] x | x8 | x8 | x8 |] %17

